X:1
T:Vintons -- Hornpipe
Z:Bob Puckette <bpuckette:msn.com> 2003-3-10
R:hornpipe
B:Cole's 1000 Fiddle Tunes
M:2/4
L:1/16
K:Bb
vfe|d2B2 BcdB|cBAG .F2(FE)|DFBF dedB|cBAG .F2(fe)|
d2B2 .B2(gf)|e2c2 .c2(cB)|Acfa gbg=e|f2f2f2:|
|:vfe|.d(BAB) .d(BAB)|.G(EDE) .G(EDE)|cdec BcdB|ABcA .F2(fg)|
.f(BAB) .g(BAB)|.a(BAB) .b(BAB)|FGAB cdcA|B2B2B2:|
